src/assets/img/providers-white/rivalgames.svg

<svg width="34" height="38" viewBox="0 0 34 38" fill="none" xmlns="http://www.w3.org/2000/svg">
<g clip-path="url(#clip0_4132_8395)">
<path fill-rule="evenodd" clip-rule="evenodd" d="M32.3671 27.9044C32.5578 27.6437 32.7346 27.2942 32.8206 26.9891C32.8752 26.7967 32.9334 26.6257 32.9954 26.4759C33.1493 26.107 33.218 25.8449 33.3033 25.503C33.3802 25.1986 33.3969 24.8963 33.3969 24.5863C33.4006 17.364 33.4003 10.1507 33.3962 2.94643C33.3962 2.92372 33.3887 2.90163 33.375 2.88358C33.3612 2.86553 33.3418 2.85252 33.3199 2.84658C33.2993 2.84101 33.2788 2.83554 33.2584 2.83009C33.101 2.78801 32.9492 2.74745 32.7964 2.67807C32.3207 2.4608 31.8348 2.29761 31.3388 2.18851C31.1931 2.15592 31.0267 2.08796 30.9012 2.00891C30.7205 1.89473 30.4879 1.80574 30.2036 1.74194C30.0379 1.70466 29.8714 1.67047 29.7048 1.63628C29.3416 1.56171 28.9784 1.48716 28.6247 1.38066C28.369 1.30392 28.1051 1.22927 27.8328 1.15669C27.5651 1.08457 27.2977 1.0284 27.0305 0.988183C26.3953 0.892489 25.6864 0.767672 24.9037 0.61373C24.7198 0.577334 24.5383 0.547029 24.3561 0.516607C24.1495 0.482113 23.942 0.447468 23.7291 0.403621C23.4799 0.352769 23.2094 0.314399 22.9177 0.288511C22.056 0.212696 21.1997 0.137112 20.3486 0.0617594C20.2085 0.0492777 20.0557 0.0414185 19.8902 0.0381825C18.2167 0.00905843 16.4413 0.00397319 14.564 0.022927C14.0684 0.0275498 13.6843 0.0428056 13.4115 0.0686936C12.4439 0.160689 11.5078 0.248061 10.6031 0.33081C10.4439 0.345501 10.2706 0.385273 10.0924 0.426158C9.90887 0.468255 9.72024 0.511532 9.53661 0.529825C9.41503 0.541845 9.29345 0.560105 9.17187 0.584606C8.37026 0.748718 7.61627 0.883706 6.9099 0.989569C6.61496 1.03349 6.33666 1.09081 6.07501 1.16154C5.79024 1.23828 5.51032 1.31641 5.23526 1.39592C4.89484 1.49342 4.5431 1.57073 4.19045 1.64825C3.95118 1.70084 3.71149 1.75353 3.47464 1.81267C3.31992 1.85135 3.17331 1.92508 3.02537 1.99948C2.88952 2.0678 2.75255 2.13668 2.60716 2.1795C2.50966 2.20804 2.4107 2.23134 2.3118 2.25462C2.13918 2.29525 1.96678 2.33584 1.80278 2.40417C1.40752 2.56828 1.00626 2.72037 0.598984 2.86045C0.593523 2.86221 0.588765 2.86572 0.5854 2.87046C0.582034 2.87519 0.580235 2.88091 0.580262 2.8868C0.582573 10.3125 0.582804 17.7177 0.580955 25.1022C0.580955 25.2624 0.602452 25.4344 0.633656 25.589C0.719179 26.0134 0.822269 26.426 0.942926 26.8268C1.01643 27.0709 1.12946 27.3254 1.28201 27.5903C1.45075 27.8833 1.6137 28.1605 1.77088 28.4217C1.83456 28.5282 1.91806 28.6149 2.00143 28.7014C2.06516 28.7676 2.1288 28.8337 2.18347 28.9085C2.29482 29.0606 2.41529 29.204 2.5354 29.3469C2.62996 29.4595 2.7243 29.5718 2.8138 29.6879C2.92971 29.8387 3.0653 29.9572 3.20084 30.0756C3.33452 30.1924 3.46816 30.3092 3.58282 30.4569C3.77996 30.7113 4.05409 30.8817 4.32391 31.0494C4.3483 31.0645 4.37265 31.0797 4.3969 31.0949C4.49768 31.1587 4.60516 31.2675 4.71935 31.4215C4.84417 31.59 5.02862 31.7397 5.20406 31.8576C5.54661 32.0888 5.87206 32.3245 6.18041 32.5649C6.32741 32.68 6.48251 32.776 6.6457 32.8527C7.06242 33.0482 7.42727 33.3313 7.78712 33.6104C7.8063 33.6253 7.82548 33.6402 7.84464 33.655C8.1078 33.8591 8.39932 34.0073 8.69105 34.1557C8.89899 34.2614 9.10704 34.3673 9.30501 34.4934C9.42751 34.571 9.55811 34.6401 9.69679 34.7007C9.89373 34.7867 10.09 34.8923 10.2855 35.0176C10.6521 35.251 11.095 35.4549 11.6141 35.6292C11.771 35.6818 11.9067 35.7805 12.044 35.8803C12.1476 35.9557 12.2521 36.0317 12.3672 36.0889C12.5909 36.2004 12.8101 36.3203 13.0246 36.4488C13.1997 36.5537 13.3965 36.6079 13.5949 36.6625C13.7667 36.7098 13.9396 36.7575 14.1008 36.8385C14.3416 36.9601 14.5878 37.0803 14.8393 37.1991C15.1356 37.3401 15.4562 37.4612 15.8011 37.5625C16.0966 37.6495 16.3676 37.7549 16.6434 37.8621C16.7235 37.8933 16.804 37.9246 16.8856 37.9557C16.9229 37.9701 16.9643 37.9718 17.0035 37.9605C17.1908 37.9066 17.3608 37.8335 17.5301 37.7608C17.7198 37.6793 17.9085 37.5983 18.1192 37.5451C18.7093 37.3961 19.2835 37.1076 19.8424 36.8268C19.9587 36.7679 20.1178 36.7195 20.287 36.668C20.4709 36.6119 20.6668 36.5523 20.8326 36.4717C21.2563 36.2651 21.6647 36.0182 22.0752 35.7547C22.207 35.6697 22.3487 35.5971 22.5003 35.537C22.5811 35.505 22.665 35.4768 22.7494 35.4484C22.9578 35.3783 23.1688 35.3074 23.34 35.1771C23.552 35.0153 23.7852 34.8996 24.0168 34.7848C24.1307 34.7283 24.2442 34.672 24.3545 34.6105C24.8039 34.36 25.2687 34.1067 25.749 33.8506C25.8589 33.792 25.9465 33.7093 26.0347 33.626C26.1168 33.5484 26.1994 33.4704 26.301 33.4109C26.4864 33.3014 26.6625 33.1793 26.8294 33.0448C26.9682 32.9333 27.1277 32.8534 27.2871 32.7735C27.3419 32.746 27.3967 32.7185 27.4507 32.6898C27.6541 32.5812 27.8348 32.4388 28.0148 32.2969C28.1821 32.165 28.3487 32.0337 28.5325 31.9304C28.6499 31.8643 28.755 31.7786 28.848 31.6732C29.1124 31.3745 29.3856 31.1332 29.6676 30.9492C29.8744 30.8139 30.0471 30.6389 30.2203 30.4635C30.3212 30.3613 30.4222 30.259 30.5302 30.1643C30.6698 30.042 30.783 29.9067 30.8954 29.7723C31.008 29.6377 31.1199 29.5039 31.2569 29.3849C31.3638 29.2918 31.4309 29.1793 31.499 29.0652C31.5435 28.9904 31.5885 28.915 31.6453 28.844C31.9009 28.5245 32.1415 28.2113 32.3671 27.9044ZM11.1086 33.6099C10.7161 33.3677 10.2948 33.113 9.8445 32.8458C9.82155 32.8324 9.79538 32.8229 9.76926 32.8135C9.74407 32.8044 9.71893 32.7953 9.69679 32.7827C9.08103 32.4313 8.48075 32.083 7.89596 31.7377C7.74617 31.6494 7.57767 31.5167 7.39044 31.3396C7.1556 31.1177 6.89349 30.937 6.60409 30.7974C6.44728 30.7214 6.31921 30.609 6.19035 30.4959C6.11806 30.4325 6.04553 30.3688 5.96752 30.3113C5.45231 29.9313 4.93015 29.4986 4.52796 29.0187C4.45217 28.9276 4.36624 28.8563 4.28124 28.7858C4.20915 28.726 4.13773 28.6668 4.07377 28.5964C3.69931 28.1855 3.35029 27.743 3.02668 27.2692C2.97537 27.1948 2.93238 27.1155 2.89771 27.0314C2.75024 26.6717 2.59676 26.3141 2.43727 25.9586C2.24241 25.5231 2.17307 25.0093 2.17307 24.5128C2.17816 17.7038 2.17839 10.9468 2.17377 4.24176C2.17377 4.10307 2.21329 3.93942 2.36862 3.89782C2.67234 3.81784 2.99641 3.7344 3.34081 3.64749C3.66117 3.56659 3.98154 3.47459 4.3019 3.3715C4.742 3.23004 5.11645 3.12557 5.42526 3.05807C5.83577 2.96839 6.2583 2.88263 6.69285 2.80081C6.97993 2.74672 7.30307 2.67183 7.66227 2.57614C8.02714 2.47844 8.3947 2.41767 8.76552 2.35636C8.9606 2.32411 9.15658 2.2917 9.35355 2.25369C9.47521 2.23035 9.59745 2.20972 9.71929 2.18916C9.92316 2.15475 10.1259 2.12054 10.323 2.07409C10.8601 1.94743 11.3125 1.86976 11.68 1.8411C12.2458 1.79718 12.7837 1.75419 13.2936 1.71212C13.8197 1.66867 14.2804 1.6407 14.6756 1.62822C16.7458 1.56304 18.4853 1.57113 19.8944 1.65249C20.1836 1.66897 20.4732 1.69537 20.7648 1.72195C21.013 1.74458 21.2627 1.76734 21.5149 1.78424C22.3253 1.83833 22.814 1.88571 22.9808 1.92639C23.7066 2.10391 24.4803 2.25254 25.3018 2.37227C25.6468 2.42292 26.0163 2.51441 26.3877 2.60635C26.662 2.67427 26.9373 2.74243 27.2045 2.79457C27.5651 2.86484 27.928 2.9358 28.2932 3.00745C28.5137 3.05091 28.6945 3.09482 28.8355 3.1392C28.9977 3.19065 29.1613 3.23681 29.3251 3.28299C29.5365 3.34263 29.7481 3.40231 29.9568 3.47344C30.1015 3.52284 30.2447 3.55549 30.3879 3.58812C30.502 3.61411 30.6159 3.6401 30.7306 3.67453C30.9821 3.74989 31.2352 3.8153 31.4899 3.87077C31.5297 3.87938 31.5656 3.90067 31.5922 3.93143C31.6189 3.96219 31.6348 4.00077 31.6376 4.04136C31.6547 4.28729 31.6633 4.53901 31.6633 4.7965C31.6587 11.3531 31.6582 17.8956 31.6619 24.4241C31.6624 24.9414 31.5928 25.4235 31.4532 25.8706C31.343 26.2242 31.1698 26.5369 30.9938 26.8547C30.9362 26.9587 30.8783 27.0633 30.8222 27.17C30.6557 27.4869 30.4775 27.7768 30.2168 28.0382C30.0772 28.1783 29.936 28.3507 29.7931 28.5555C29.7246 28.6536 29.6335 28.7195 29.5424 28.7854C29.4564 28.8476 29.3706 28.9097 29.3042 28.9986C29.2223 29.1084 29.1247 29.1987 29.0265 29.2896C28.9436 29.3665 28.8602 29.4437 28.7856 29.5333C28.6136 29.7394 28.4194 29.9082 28.2031 30.0395C28.0746 30.1178 27.9661 30.2164 27.8571 30.3155C27.7443 30.418 27.6309 30.521 27.4944 30.6025C27.4402 30.6347 27.3865 30.6654 27.3334 30.6959C27.1238 30.816 26.9224 30.9315 26.7316 31.1073C26.4006 31.412 26.1071 31.6443 25.851 31.8042C25.3503 32.117 24.8365 32.4075 24.3164 32.6904C23.8957 32.9193 23.4797 33.1652 23.0682 33.4282C22.8158 33.5901 22.3954 33.808 21.8069 34.0822C21.6834 34.1395 21.5705 34.209 21.458 34.2782C21.3323 34.3556 21.2071 34.4327 21.0684 34.492C20.8405 34.5891 20.6213 34.6743 20.411 34.7479C20.1434 34.8413 19.8763 34.9786 19.617 35.1118C19.359 35.2443 19.1088 35.3728 18.8737 35.4503C18.4978 35.5737 18.1696 35.7039 17.889 35.8407C17.6403 35.9627 17.3865 36.095 17.1276 36.2373C16.9585 36.3303 16.8485 36.2614 16.7268 36.1852C16.6824 36.1574 16.6364 36.1285 16.5853 36.1063C16.3158 35.9884 16.0378 35.8624 15.7511 35.7284C15.5121 35.616 15.2493 35.5109 14.9627 35.4128C14.6668 35.3116 14.3724 35.1757 14.0793 35.0051C13.9184 34.9117 13.7598 34.841 13.6036 34.7929C13.1297 34.6468 12.6929 34.4492 12.293 34.2C12.073 34.0632 11.8573 33.9555 11.646 33.8769C11.4699 33.8117 11.2908 33.7227 11.1086 33.6099ZM23.543 17.9216C23.5042 17.8588 23.4706 17.8044 23.4746 17.7193C23.4749 17.7115 23.4782 17.7041 23.4837 17.6986C23.4892 17.6931 23.4966 17.6898 23.5044 17.6895C23.8465 17.6696 24.1911 17.6398 24.5383 17.6C24.7542 17.5755 24.9273 17.5427 25.0577 17.5016C25.3711 17.4038 25.7268 17.1874 26.0125 16.9926C26.4425 16.699 26.7399 16.3546 26.905 15.9594C27.1403 15.3949 27.2709 14.8591 27.2968 14.352C27.3189 13.9073 27.3245 13.3234 27.3134 12.6004C27.3074 12.1963 27.2771 11.8513 27.2226 11.5651C27.1634 11.2554 27.0534 10.9033 26.8925 10.509C26.8347 10.3671 26.7485 10.2434 26.6338 10.138C26.4688 9.98592 26.3084 9.82875 26.1526 9.66648C26.0709 9.5811 25.9712 9.5148 25.8607 9.47232C25.6526 9.39188 25.437 9.30474 25.2137 9.2109C24.7491 9.01628 24.2477 8.8799 23.7096 8.80177C23.3985 8.75693 22.9374 8.73474 22.3262 8.7352C16.4464 8.73983 11.1879 8.74145 6.5507 8.74006C6.51649 8.74006 6.48459 8.74815 6.455 8.76433C6.44664 8.76878 6.43952 8.77525 6.43429 8.78315C6.42906 8.79105 6.42589 8.80013 6.42506 8.80957C6.42423 8.81901 6.42578 8.82851 6.42955 8.8372C6.43333 8.84589 6.43922 8.85349 6.44668 8.85933C6.58805 8.96985 6.70772 9.09758 6.82726 9.22517C6.90123 9.30412 6.97515 9.38302 7.05413 9.45776C7.22333 9.61817 7.38628 9.80794 7.543 10.0271C7.62165 10.1374 7.72039 10.228 7.81934 10.3188C7.85038 10.3473 7.88144 10.3758 7.9119 10.405C8.06434 10.5509 8.16887 10.7153 8.27534 10.8826C8.31659 10.9475 8.35813 11.0128 8.40285 11.0776C8.47682 11.1849 8.58106 11.2387 8.71559 11.2392C13.1757 11.248 17.6368 11.2463 22.0988 11.2343C22.3947 11.2334 22.669 11.2417 22.9219 11.2593C23.2039 11.2792 23.4866 11.376 23.77 11.5498C24.0473 11.7204 24.1618 12.1469 24.1673 12.452C24.177 13.071 24.1779 13.671 24.1701 14.2521C24.1652 14.5912 24.1236 14.8277 23.8296 14.9789C23.7071 15.0422 23.5677 15.1122 23.4115 15.189C23.0904 15.3464 22.7284 15.3478 22.3741 15.3478C18.0633 15.3473 13.9374 15.3494 9.99636 15.354C9.54008 15.3545 9.07663 15.357 8.60603 15.3616C8.58757 15.3618 8.56994 15.3693 8.55695 15.3824C8.54397 15.3955 8.53668 15.4132 8.53668 15.4317L8.53807 24.7278C8.53807 24.8133 8.58106 24.8561 8.66705 24.8561L11.6016 24.8637C11.619 24.8637 11.6357 24.8572 11.6483 24.8453C11.6609 24.8334 11.6685 24.8172 11.6696 24.7999C11.6899 24.4315 11.7006 24.0774 11.7015 23.7376C11.7061 21.8649 11.7066 20.009 11.7029 18.17C11.7029 18.0494 11.6948 17.9255 11.6786 17.7983C11.6768 17.784 11.6781 17.7694 11.6824 17.7556C11.6866 17.7418 11.6937 17.7291 11.7032 17.7183C11.7127 17.7075 11.7244 17.6988 11.7375 17.6929C11.7506 17.687 11.7648 17.6839 11.7792 17.6839H19.9471C19.9901 17.6839 20.0319 17.6985 20.0656 17.7253C20.0993 17.7521 20.1231 17.7896 20.1329 17.8316C20.178 18.0223 20.2522 18.281 20.3805 18.4446C20.5521 18.663 20.6796 18.9025 20.806 19.1401C20.8912 19.3 20.9759 19.4591 21.0732 19.6103C21.1996 19.8072 21.284 20.0373 21.3665 20.2624C21.4366 20.4536 21.5054 20.6411 21.5975 20.8016C21.6427 20.8804 21.689 20.9588 21.7353 21.0373C21.9163 21.3439 22.0975 21.6509 22.2146 21.9839C22.3034 22.2349 22.3951 22.4388 22.4899 22.5955C22.5662 22.722 22.6477 22.848 22.7298 22.9751C22.9418 23.3031 23.1584 23.6383 23.3033 24.0066C23.3916 24.2318 23.4944 24.4629 23.6119 24.7001C23.6687 24.8147 23.7589 24.8713 23.8823 24.87C24.9599 24.8561 26.0588 24.8561 27.1789 24.87C27.2131 24.8704 27.2263 24.8538 27.2184 24.82C27.166 24.59 27.0408 24.3537 26.9211 24.1278C26.8824 24.0547 26.8442 23.9827 26.8093 23.9123C26.7016 23.6964 26.5809 23.484 26.4473 23.2751C26.2929 23.0333 26.1533 22.7538 26.0285 22.4367C25.9587 22.2596 25.872 22.0895 25.7684 21.9263C25.5586 21.5958 25.378 21.2514 25.2269 20.8931C25.1959 20.8196 25.1541 20.7584 25.1014 20.7094C24.9456 20.5655 24.8586 20.3674 24.7716 20.1696C24.711 20.0317 24.6504 19.8939 24.5667 19.7746C24.4488 19.6068 24.3474 19.4249 24.2623 19.2289C24.1158 18.8914 23.9259 18.5704 23.7369 18.251C23.6809 18.1562 23.625 18.0617 23.5703 17.9668C23.5612 17.951 23.5519 17.9361 23.543 17.9216Z" fill="white"/>
</g>
<defs>
<clipPath id="clip0_4132_8395">
<rect width="32.8686" height="38" fill="white" transform="translate(0.565674 0.000976562)"/>
</clipPath>
</defs>
</svg>

<svg xmlns="http://www.w3.org/2000/svg" width="34" height="38" fill="none"><g clip-path="url(#a)"><path fill="#fff" fill-rule="evenodd" d="M32.367 27.904c.19-.26.368-.61.454-.915.054-.192.112-.363.174-.513.154-.369.223-.631.308-.973.077-.304.094-.607.094-.917.004-7.222.003-14.435 0-21.64a.104.104 0 0 0-.077-.1l-.062-.016c-.157-.042-.309-.083-.462-.152a7.25 7.25 0 0 0-1.457-.49 1.482 1.482 0 0 1-.438-.18 2.214 2.214 0 0 0-.697-.266 27 27 0 0 0-.5-.106c-.362-.074-.726-.149-1.08-.255-.255-.077-.519-.152-.791-.224a7.205 7.205 0 0 0-.802-.169 48.763 48.763 0 0 1-2.127-.374c-.184-.037-.366-.067-.548-.097a16.73 16.73 0 0 1-.627-.113c-.25-.051-.52-.09-.811-.115l-2.57-.227a6.655 6.655 0 0 0-.458-.024C18.217.01 16.441.004 14.564.023c-.496.005-.88.02-1.152.046-.968.092-1.904.18-2.809.262-.16.015-.332.054-.51.095-.184.042-.373.086-.556.104-.122.012-.244.03-.365.055C8.37.749 7.616.884 6.91.99a7.347 7.347 0 0 0-.835.172 48 48 0 0 0-.84.234c-.34.097-.692.175-1.045.252-.239.053-.479.106-.715.165a2.224 2.224 0 0 0-.45.186 2.546 2.546 0 0 1-.418.18 5.69 5.69 0 0 1-.295.076 3.24 3.24 0 0 0-.51.15c-.394.163-.796.315-1.203.455a.027.027 0 0 0-.014.01.028.028 0 0 0-.005.017c.003 7.425.003 14.83.001 22.215 0 .16.021.332.053.487.085.424.188.837.309 1.238.073.244.186.498.339.763.169.293.332.57.489.832.064.106.147.193.23.28.064.066.128.132.182.206.112.153.232.296.352.439.095.112.19.225.279.34.116.152.251.27.387.389.134.116.267.233.382.38.197.255.471.426.74.593l.074.046c.1.064.208.172.322.327.125.168.31.318.485.436.343.23.668.466.976.707.147.115.303.211.466.288.416.195.781.478 1.141.757l.058.045c.263.204.554.352.846.5.208.106.416.212.614.338.123.078.253.147.392.208.197.086.393.191.589.317.366.233.809.437 1.328.611.157.053.293.152.43.251.104.076.208.152.323.209.224.111.443.231.658.36.175.105.371.159.57.214.172.047.345.095.506.176.24.121.487.241.738.36.297.141.617.262.962.364.296.087.567.192.842.3l.243.093a.185.185 0 0 0 .117.005c.188-.054.358-.127.527-.2.19-.082.378-.163.59-.216.59-.149 1.163-.437 1.722-.718.117-.06.276-.108.445-.159.184-.056.38-.116.546-.196.423-.207.832-.454 1.242-.717.132-.085.274-.158.425-.218.081-.032.165-.06.25-.089.208-.07.419-.14.59-.27a4.05 4.05 0 0 1 .677-.393c.114-.057.227-.113.338-.174.449-.251.914-.504 1.394-.76.11-.059.198-.142.286-.225.082-.078.164-.156.266-.215.185-.11.362-.232.528-.366.14-.112.299-.192.458-.272l.164-.083c.203-.109.384-.251.564-.393.167-.132.334-.263.517-.367.118-.066.223-.151.316-.257.264-.298.538-.54.82-.724.206-.135.38-.31.552-.486.101-.102.202-.204.31-.299.14-.122.253-.257.365-.392.113-.134.225-.268.362-.387.107-.093.174-.206.242-.32a1.9 1.9 0 0 1 .146-.221c.256-.32.497-.633.722-.94ZM11.11 33.61a85.427 85.427 0 0 0-1.264-.764.455.455 0 0 0-.076-.032.469.469 0 0 1-.072-.031c-.616-.352-1.216-.7-1.801-1.045a2.942 2.942 0 0 1-.506-.398 3.099 3.099 0 0 0-.786-.543 1.89 1.89 0 0 1-.414-.301c-.072-.063-.144-.127-.222-.185-.516-.38-1.038-.812-1.44-1.292a1.805 1.805 0 0 0-.247-.233c-.072-.06-.143-.12-.207-.19a12.09 12.09 0 0 1-1.047-1.327 1.27 1.27 0 0 1-.13-.238c-.147-.36-.3-.717-.46-1.072-.195-.436-.264-.95-.264-1.446.005-6.81.005-13.566 0-20.271 0-.139.04-.303.196-.344.303-.08.627-.164.972-.25.32-.081.64-.173.96-.276.441-.142.815-.246 1.124-.314.41-.09.833-.175 1.268-.257.287-.054.61-.13.97-.225.364-.098.732-.158 1.103-.22.195-.032.39-.064.588-.102.121-.024.243-.044.365-.065.204-.034.407-.068.604-.115.537-.127.99-.204 1.357-.233.566-.044 1.104-.087 1.614-.129.526-.043.986-.071 1.382-.084 2.07-.065 3.81-.057 5.218.024.29.017.58.043.87.07.249.023.499.045.75.062.811.054 1.3.102 1.467.142.726.178 1.5.327 2.32.446.346.05.715.142 1.087.234.274.068.55.136.816.189l1.09.212c.22.044.4.088.541.132.163.052.326.098.49.144.212.06.423.12.632.19.145.05.288.082.43.115.115.026.229.052.344.087.251.075.504.14.759.196a.188.188 0 0 1 .148.17c.017.246.025.498.025.755-.004 6.557-.005 13.1-.001 19.628 0 .517-.07 1-.209 1.447-.11.353-.283.666-.46.984-.057.104-.115.208-.17.315-.167.317-.346.607-.606.868-.14.14-.281.313-.424.517a.996.996 0 0 1-.25.23 1.04 1.04 0 0 0-.239.214c-.082.11-.18.2-.277.29-.083.077-.167.155-.241.244a2.337 2.337 0 0 1-.583.506 2.303 2.303 0 0 0-.346.276 2.293 2.293 0 0 1-.363.287c-.054.033-.107.063-.16.094a3.14 3.14 0 0 0-.602.411 6.22 6.22 0 0 1-.881.697c-.5.313-1.014.604-1.535.886-.42.23-.836.475-1.248.738-.252.162-.673.38-1.261.654-.124.057-.236.127-.349.196-.126.078-.25.155-.39.214-.228.097-.447.182-.657.256-.268.093-.535.23-.794.364-.258.132-.508.26-.743.338a7.842 7.842 0 0 0-.985.39 18.48 18.48 0 0 0-.761.397c-.17.093-.28.024-.401-.052-.045-.028-.09-.056-.142-.079a36.93 36.93 0 0 1-.834-.378 7.76 7.76 0 0 0-.788-.315 4.926 4.926 0 0 1-.884-.408 2.297 2.297 0 0 0-.475-.212 5.565 5.565 0 0 1-1.311-.593 3.623 3.623 0 0 0-.647-.323 3.011 3.011 0 0 1-.537-.267Zm12.434-15.688c-.039-.063-.072-.118-.068-.203a.031.031 0 0 1 .03-.03c.341-.02.686-.05 1.033-.089.216-.024.39-.057.52-.098.313-.098.669-.315.954-.51.43-.293.728-.637.893-1.033.235-.564.366-1.1.392-1.607.022-.445.027-1.029.016-1.752a6.112 6.112 0 0 0-.09-1.035c-.06-.31-.17-.662-.33-1.056a1.022 1.022 0 0 0-.26-.371c-.164-.152-.325-.31-.48-.472a.803.803 0 0 0-.292-.194 24.11 24.11 0 0 1-.647-.261 6.172 6.172 0 0 0-1.504-.41c-.312-.044-.773-.066-1.384-.066-5.88.005-11.138.006-15.775.005a.196.196 0 0 0-.096.024.057.057 0 0 0-.008.095c.141.11.26.239.38.366.074.08.148.158.227.233.17.16.332.35.489.57.079.11.177.2.276.29l.093.087c.152.146.257.31.363.478.042.065.083.13.128.195a.36.36 0 0 0 .313.161c4.46.009 8.92.007 13.383-.005.296 0 .57.008.823.025.282.02.565.117.848.29.277.171.392.598.397.903.01.619.01 1.219.003 1.8-.005.34-.046.576-.34.727-.123.063-.262.133-.418.21-.322.157-.684.159-1.038.159-4.31 0-8.437.001-12.378.006-.456 0-.92.003-1.39.008a.07.07 0 0 0-.07.07l.002 9.296c0 .085.043.128.129.128l2.935.008a.068.068 0 0 0 .068-.064c.02-.369.03-.723.031-1.062.005-1.873.006-3.729.002-5.568 0-.12-.008-.245-.024-.372a.101.101 0 0 1 .059-.105.102.102 0 0 1 .041-.01h8.168a.19.19 0 0 1 .186.149c.045.19.12.449.248.613.171.218.299.457.425.695.085.16.17.32.267.47.127.197.211.427.293.652.07.192.14.38.232.54l.137.235c.181.307.363.614.48.947.088.25.18.455.275.611.076.127.158.253.24.38.212.328.428.663.573 1.032.089.225.191.456.309.693a.28.28 0 0 0 .27.17 130.3 130.3 0 0 1 3.297 0c.034 0 .047-.016.04-.05-.053-.23-.178-.466-.298-.692-.039-.073-.077-.145-.112-.216a6.896 6.896 0 0 0-.362-.637 4.871 4.871 0 0 1-.418-.838 3.01 3.01 0 0 0-.26-.51c-.21-.331-.391-.676-.542-1.034a.525.525 0 0 0-.126-.184c-.155-.143-.242-.342-.33-.54a2.276 2.276 0 0 0-.204-.394 3.078 3.078 0 0 1-.305-.546 8.938 8.938 0 0 0-.525-.978l-.167-.284-.027-.045Z" clip-rule="evenodd"/></g><defs><clipPath id="a"><path fill="#fff" d="M.566.001h32.869v38H.565z"/></clipPath></defs></svg>
